icon.svg

<svg version="1.2" xmlns="http://www.w3.org/2000/svg" viewBox="0 0 512 512" width="512" height="512"><defs><linearGradient id="P" gradientUnits="userSpaceOnUse"/><linearGradient id="g1" x2="1" href="#P" gradientTransform="matrix(181.432,91.925,-108.217,213.587,277.317,27.126)"><stop stop-color="#d7db0a"/><stop offset="1" stop-color="#62d399"/></linearGradient><linearGradient id="g2" x2="1" href="#P" gradientTransform="matrix(96.418,144.528,-179.787,119.94,362.331,63.258)"><stop stop-color="#74af52"/><stop offset="1" stop-color="#0ba398"/></linearGradient><linearGradient id="g3" x2="1" href="#P" gradientTransform="matrix(104.079,60.667,-257.055,440.993,354.671,27.126)"><stop stop-color="#e8ed55"/><stop offset="1" stop-color="#9c3"/></linearGradient><linearGradient id="g4" x2="1" href="#P" gradientTransform="matrix(76.022,156.182,-102.089,49.692,326.615,290.314)"><stop stop-color="#9c3"/><stop offset="1" stop-color="#62d399"/></linearGradient><linearGradient id="g5" x2="1" href="#P" gradientTransform="matrix(127.981,112.763,-43.012,48.817,249.937,372.779)"><stop stop-color="#4ca352"/><stop offset="1" stop-color="#36a382"/></linearGradient><linearGradient id="g6" x2="1" href="#P" gradientTransform="matrix(60.7,72.187,-30.431,25.588,317.218,341.168)"><stop stop-color="#b8d94a"/><stop offset="1" stop-color="#74af52"/></linearGradient><linearGradient id="g7" x2="1" href="#P" gradientTransform="matrix(156.713,95.217,-36.382,59.879,21.333,186.332)"><stop stop-color="#62d399"/><stop offset="1" stop-color="#0ba398"/></linearGradient><linearGradient id="g8" x2="1" href="#P" gradientTransform="matrix(184.931,53.646,-29.346,101.164,21.333,158.733)"><stop stop-color="#0ba398"/><stop offset="1" stop-color="#4ca352"/></linearGradient><linearGradient id="g9" x2="1" href="#P" gradientTransform="matrix(149.458,17.948,-2.384,19.855,21.333,186.332)"><stop stop-color="#74cf8a"/><stop offset="1" stop-color="#62d399"/></linearGradient></defs><style>.a{fill:url(#g1)}.b{fill:url(#g2)}.c{fill:url(#g3)}.d{fill:url(#g4)}.e{fill:url(#g5)}.f{fill:url(#g6)}.g{fill:url(#g7)}.h{fill:url(#g8)}.i{fill:url(#g9)}</style><path fill-rule="evenodd" class="a" d="m458.7 27.1l-181.4 76.2 85 38.7z"/><path fill-rule="evenodd" class="b" d="m458.7 27.1l-56.9 180.7-39.5-65.8z"/><path fill-rule="evenodd" class="c" d="m458.7 27.1l-104 108.5 15.3 12.9z"/><path fill-rule="evenodd" class="d" d="m377.9 485.5l24.7-195.2-76 54.3z"/><path fill-rule="evenodd" class="e" d="m377.9 485.5l-128-139.6 76.7-1.3z"/><path fill-rule="evenodd" class="f" d="m377.9 485.5l-41.9-144.3-18.8 6.8z"/><path fill-rule="evenodd" class="g" d="m21.3 186.3l156.7 119.1-8.9-93z"/><path fill-rule="evenodd" class="h" d="m21.3 186.3l185-41-37.2 67.1z"/><path fill-rule="evenodd" class="i" d="m21.3 186.3l146 35.9 3.5-19.7z"/></svg>

<?xml version="1.0" encoding="UTF-8" standalone="no"?>
<!DOCTYPE svg PUBLIC "-//W3C//DTD SVG 1.1//EN" "http://www.w3.org/Graphics/SVG/1.1/DTD/svg11.dtd">
<svg width="100%" height="100%" viewBox="0 0 512 512" version="1.1" xmlns="http://www.w3.org/2000/svg" xmlns:xlink="http://www.w3.org/1999/xlink" xml:space="preserve" xmlns:serif="http://www.serif.com/" style="fill-rule:evenodd;clip-rule:evenodd;stroke-linejoin:round;stroke-miterlimit:2;">
    <g transform="matrix(1.171183,0,0,1.171183,-95.929481,19.218041)">
        <path d="M458.7,27.1L277.3,103.3L362.3,142L458.7,27.1Z" style="fill:url(#_Linear1);"/>
    </g>
    <g transform="matrix(1.171183,0,0,1.171183,-95.929481,19.218041)">
        <path d="M458.7,27.1L401.8,207.8L362.3,142L458.7,27.1Z" style="fill:url(#_Linear2);"/>
    </g>
    <g transform="matrix(1.171183,0,0,1.171183,-96.773086,-76.109334)">
        <path d="M377.9,485.5L402.6,290.3L326.6,344.6L377.9,485.5Z" style="fill:url(#_Linear3);"/>
    </g>
    <g transform="matrix(1.171183,0,0,1.171183,-96.773086,-76.109334)">
        <path d="M377.9,485.5L249.9,345.9L326.6,344.6L377.9,485.5Z" style="fill:url(#_Linear4);"/>
    </g>
    <g transform="matrix(1.171183,0,0,1.171183,-11.568972,-29.711054)">
        <path d="M21.3,186.3L178,305.4L169.1,212.4L21.3,186.3Z" style="fill:url(#_Linear5);"/>
    </g>
    <g transform="matrix(1.171183,0,0,1.171183,-11.568972,-29.711054)">
        <path d="M21.3,186.3L206.3,145.3L169.1,212.4L21.3,186.3Z" style="fill:url(#_Linear6);"/>
    </g>
    <defs>
        <linearGradient id="_Linear1" x1="0" y1="0" x2="1" y2="0" gradientUnits="userSpaceOnUse" gradientTransform="matrix(83222.8584,26708.231052,-26708.231052,83222.8584,271.5102,-13002.171152)"><stop offset="0" style="stop-color:rgb(215,219,10);stop-opacity:1"/><stop offset="1" style="stop-color:rgb(98,211,153);stop-opacity:1"/></linearGradient>
        <linearGradient id="_Linear2" x1="0" y1="0" x2="1" y2="0" gradientUnits="userSpaceOnUse" gradientTransform="matrix(44226.9366,124268.72763,-124268.72763,44226.9366,358.767,-86694.69743)"><stop offset="0" style="stop-color:rgb(116,175,82);stop-opacity:1"/><stop offset="1" style="stop-color:rgb(11,163,152);stop-opacity:1"/></linearGradient>
        <linearGradient id="_Linear3" x1="0" y1="0" x2="1" y2="0" gradientUnits="userSpaceOnUse" gradientTransform="matrix(30606.4572,161499.421693,-161499.421693,30606.4572,320.5548,-74053.102493)"><stop offset="0" style="stop-color:rgb(153,204,51);stop-opacity:1"/><stop offset="1" style="stop-color:rgb(98,211,153);stop-opacity:1"/></linearGradient>
        <linearGradient id="_Linear4" x1="0" y1="0" x2="1" y2="0" gradientUnits="userSpaceOnUse" gradientTransform="matrix(48364.0199,46907.742984,-46907.742984,48364.0199,259.3841,21849.724816)"><stop offset="0" style="stop-color:rgb(76,163,82);stop-opacity:1"/><stop offset="1" style="stop-color:rgb(54,163,130);stop-opacity:1"/></linearGradient>
        <linearGradient id="_Linear5" x1="0" y1="0" x2="1" y2="0" gradientUnits="userSpaceOnUse" gradientTransform="matrix(27894.914,12881.821038,-12881.821038,27894.914,26.1942,20836.964862)"><stop offset="0" style="stop-color:rgb(98,211,153);stop-opacity:1"/><stop offset="1" style="stop-color:rgb(11,163,152);stop-opacity:1"/></linearGradient>
        <linearGradient id="_Linear6" x1="0" y1="0" x2="1" y2="0" gradientUnits="userSpaceOnUse" gradientTransform="matrix(38151.2653,4014.092398,-4014.092398,38151.2653,28.8747,10381.838502)"><stop offset="0" style="stop-color:rgb(11,163,152);stop-opacity:1"/><stop offset="1" style="stop-color:rgb(76,163,82);stop-opacity:1"/></linearGradient>
    </defs>
</svg>
